X:18
T:Ceres Green
R:Strathspey
S:MacDonald - Skye Collection
N:pg.19
M:C
L:1/8
K:A
E|A2 c>A e2 c>A|B>AB>c B2c2|A2 c>A e2 c>A|B>A B>c A2 z:|
B|e2 e>c f2f2|d>f e>c B2B2|e2 e>c f2f2|a>g f>g a4|e2 e>c f2f2|e>f ec B2B2|
AA B>B c>c d>d|e>d c>B A4||
